common/src/main/resources/icons/debugger/watchLastReturnValue.svg

<svg xmlns="http://www.w3.org/2000/svg" width="16" height="16" fill="#C792EA" data-big="true" viewBox="0 0 24 24"><circle cx="12" cy="12" r="12" fill="#FFD54F"/><path fill="#E91E63" d="M12.42 5.29c-1.1-.1-2.07.71-2.17 1.82L10 10h2.82v2h-3l-.44 5.07A4.001 4.001 0 0 1 2 18.83l1.5-1.5c.33 1.05 1.46 1.64 2.5 1.3.78-.24 1.33-.93 1.4-1.74L7.82 12h-3v-2H8l.27-3.07a4.01 4.01 0 0 1 4.33-3.65c1.26.11 2.4.81 3.06 1.89l-1.5 1.5c-.25-.77-.93-1.31-1.74-1.38M22 13.65l-1.41-1.41-2.83 2.83-2.83-2.83-1.43 1.41 2.85 2.85-2.85 2.81 1.43 1.41 2.83-2.83 2.83 2.83L22 19.31l-2.83-2.81z"/><path fill="#311B92" d="M7 17H4C2.38 17 .96 15.74.76 14.14l-.5-2.99C.15 10.3.39 9.5.91 8.92S2.19 8 3 8h6c.83 0 1.58.35 2.06.96.11.15.21.31.29.49.43-.09.87-.09 1.29 0 .08-.18.18-.34.3-.49C13.41 8.35 14.16 8 15 8h6c.81 0 1.57.34 2.09.92.51.58.75 1.38.65 2.19l-.51 3.07C23.04 15.74 21.61 17 20 17h-3c-1.56 0-3.08-1.19-3.46-2.7l-.9-2.71c-.38-.28-.91-.28-1.29 0l-.92 2.78C10.07 15.82 8.56 17 7 17"/></svg>

<!--
  - The MIT License (MIT)
  -
  - Copyright (c) 2015-2024 Elior "Mallowigi" Boukhobza
  -
  - Permission is hereby granted, free of charge, to any person obtaining a copy
  - of this software and associated documentation files (the "Software"), to deal
  - in the Software without restriction, including without limitation the rights
  - to use, copy, modify, merge, publish, distribute, sublicense, and/or sell
  - copies of the Software, and to permit persons to whom the Software is
  - furnished to do so, subject to the following conditions:
  -
  - The above copyright notice and this permission notice shall be included in all
  - copies or substantial portions of the Software.
  -
  - THE SOFTWARE IS PROVIDED "AS IS", WITHOUT WARRANTY OF ANY KIND, EXPRESS OR
  - IMPLIED, INCLUDING BUT NOT LIMITED TO THE WARRANTIES OF MERCHANTABILITY,
  - FITNESS FOR A PARTICULAR PURPOSE AND NONINFRINGEMENT. IN NO EVENT SHALL THE
  - AUTHORS OR COPYRIGHT HOLDERS BE LIABLE FOR ANY CLAIM, DAMAGES OR OTHER
  - LIABILITY, WHETHER IN AN ACTION OF CONTRACT, TORT OR OTHERWISE, ARISING FROM,
  - OUT OF OR IN CONNECTION WITH THE SOFTWARE OR THE USE OR OTHER DEALINGS IN THE
  - SOFTWARE.
  -->


<svg data-big="true" xmlns="http://www.w3.org/2000/svg" version="1.1" width="16px" height="16px" viewBox="0 0 24 24"
     fill="#C792EA">
  <circle r="12" cx="12" cy="12" fill="#FFD54F"/>
  <path fill="#E91E63"
        d="M12.42,5.29C11.32,5.19 10.35,6 10.25,7.11L10,10H12.82V12H9.82L9.38,17.07C9.18,19.27 7.24,20.9 5.04,20.7C3.79,20.59 2.66,19.9 2,18.83L3.5,17.33C3.83,18.38 4.96,18.97 6,18.63C6.78,18.39 7.33,17.7 7.4,16.89L7.82,12H4.82V10H8L8.27,6.93C8.46,4.73 10.39,3.1 12.6,3.28C13.86,3.39 15,4.09 15.66,5.17L14.16,6.67C13.91,5.9 13.23,5.36 12.42,5.29M22,13.65L20.59,12.24L17.76,15.07L14.93,12.24L13.5,13.65L16.35,16.5L13.5,19.31L14.93,20.72L17.76,17.89L20.59,20.72L22,19.31L19.17,16.5L22,13.65Z"/>
  <path fill="#311B92"
        d="M7,17H4C2.38,17 0.96,15.74 0.76,14.14L0.26,11.15C0.15,10.3 0.39,9.5 0.91,8.92C1.43,8.34 2.19,8 3,8H9C9.83,8 10.58,8.35 11.06,8.96C11.17,9.11 11.27,9.27 11.35,9.45C11.78,9.36 12.22,9.36 12.64,9.45C12.72,9.27 12.82,9.11 12.94,8.96C13.41,8.35 14.16,8 15,8H21C21.81,8 22.57,8.34 23.09,8.92C23.6,9.5 23.84,10.3 23.74,11.11L23.23,14.18C23.04,15.74 21.61,17 20,17H17C15.44,17 13.92,15.81 13.54,14.3L12.64,11.59C12.26,11.31 11.73,11.31 11.35,11.59L10.43,14.37C10.07,15.82 8.56,17 7,17Z"/>
</svg>
